X: 1521
T: Harry Cotter's Jig
C:Charles Kinkel, Published 1854 as "Mountain Belle Schottische"
B: australian traditional tunes wiki
M:6/8
L:1/8
R: Jig
Q: 3/8=100
K:G
V:1 
B2c|:"G"d2b a2g|"D7"f2a gfe|"G"d3B3|B2A G2B|1
"D7"d3c3|c2B A2c|"G"e3d3|d3B2c:|2
"D7"d2gf2e|d2cB2A|"G"G3-GBd|"G"g3d3||
"G"B3d3|g3a3|"D7"g3f2=f|f3A2B|
"Am"c3e3|e3f3|"D7"e3d2^c|d2cB2c|
"G"d3g3|g3a3|"D7"g3f2=f|f3f3|
A3f2e|c3f2e|"G"dcBG3|G3|
% abcbook-tune_id 6342d53a385b061c844d06e0


% abcbook-boost 0
% abcbook-tablature 
% abcbook-transpose 
% abcbook-lastupdated 1665324369087
% abcbook-soundfonts 
% abcbook-repeats 1
% NFF Book 2006

